packages/sources/assets/src/assets/bitpay.svg

<svg width="58" height="40" viewBox="0 0 58 40" fill="none" xmlns="http://www.w3.org/2000/svg">
<rect x="0.5" y="0.5" width="57" height="39" rx="3.5" fill="white" stroke="#F3F3F3"/>
<path fill-rule="evenodd" clip-rule="evenodd" d="M53.6901 15.202H51.1632L49.6933 21.4483H49.6959L49.494 22.3076C49.3529 22.3476 49.2126 22.3835 49.0732 22.4117C48.8116 22.4645 48.5413 22.491 48.2622 22.491C47.9365 22.491 47.6807 22.4442 47.4948 22.35C47.3086 22.2561 47.1779 22.1241 47.1023 21.9536C47.0266 21.7835 46.9977 21.5809 47.0152 21.3458C47.0326 21.111 47.0762 20.8586 47.146 20.5882L47.9133 17.3465L48.4192 15.1971L48.4193 15.1964H45.8378L44.6693 20.1831C44.5298 20.7821 44.4483 21.3519 44.4252 21.892C44.4016 22.4323 44.4831 22.9111 44.6693 23.3278C44.8552 23.7449 45.1691 24.0739 45.6111 24.3145C46.0528 24.555 46.675 24.6756 47.4773 24.6756C48.0354 24.6756 48.5179 24.6286 48.925 24.5346C48.9415 24.5309 48.9573 24.5268 48.9733 24.5228L48.9722 24.5275C48.8591 25.042 48.63 25.4592 48.2623 25.7848C47.8943 26.1108 47.3482 26.2737 46.6241 26.2737C46.315 26.2737 46.0341 26.2551 45.7795 26.2196L45.2822 28.3333C45.6186 28.3773 45.9915 28.4 46.4034 28.4C47.1729 28.4 47.8465 28.3112 48.4237 28.1341C49.0009 27.9568 49.4958 27.6883 49.9089 27.3281C50.3219 26.968 50.6671 26.5163 50.9445 25.9736C51.2217 25.4305 51.4452 24.7877 51.615 24.0444L53.3635 16.6194C53.3614 16.6184 53.3593 16.6176 53.3572 16.6167L53.6901 15.202Z" fill="#002855"/>
<path fill-rule="evenodd" clip-rule="evenodd" d="M41.2956 17.3485C40.1173 17.3485 39.8924 17.3485 39.4095 17.6014C39.0668 17.7809 38.7831 18.0507 38.534 18.3655C38.2846 18.6803 38.0892 19.0437 37.9477 19.4557C37.8058 19.868 37.7351 20.2971 37.7351 20.7435C37.7351 21.2929 37.8257 21.7282 38.0072 22.0485C38.1882 22.3691 38.5227 22.5292 39.01 22.5292C39.2706 22.5292 39.5057 22.4778 39.7155 22.3747C39.925 22.2718 40.149 22.1 40.3869 21.8596C40.4095 21.5737 40.4464 21.2732 40.4974 20.9582C40.5484 20.6436 40.613 20.3518 40.6698 20.0882L41.2956 17.3485ZM43.0898 20.5375C42.9309 21.1901 42.8856 21.8453 42.9536 22.5035C43.0218 23.162 43.271 24.1707 43.5141 24.6757H41.0687C40.77 24.1652 40.7835 23.926 40.7269 23.7656C40.4095 24.029 40.0582 24.2464 39.6731 24.4181C39.2877 24.5897 38.857 24.6757 38.381 24.6757C37.8144 24.6757 37.3299 24.5753 36.9278 24.3752C36.5253 24.175 36.1967 23.9059 35.9418 23.5682C35.6868 23.2307 35.5024 22.8357 35.3894 22.3834C35.2759 21.9313 35.2194 21.4476 35.2194 20.9325C35.2194 20.1426 35.3579 19.3985 35.6359 18.7003C35.9134 18.0021 36.2988 17.3925 36.7918 16.8715C37.2846 16.3507 38.4743 15.2022 40.4266 15.2022C41.2703 15.2022 42.4042 15.202 44.347 15.202L43.0898 20.5375Z" fill="#002855"/>
<path fill-rule="evenodd" clip-rule="evenodd" d="M28.3046 22.4969C28.4986 22.5431 28.7381 22.5661 29.0234 22.5661C29.4684 22.5661 29.8732 22.4826 30.2385 22.3155C30.6034 22.1485 30.9144 21.9152 31.1711 21.6153C31.4278 21.3158 31.6272 20.9558 31.77 20.535C31.9125 20.1144 31.9839 19.6507 31.9839 19.1435C31.9839 18.6481 31.8754 18.2273 31.6588 17.8816C31.442 17.5358 31.0618 17.3521 30.5257 17.3499C30.1508 17.3484 29.5283 17.3484 29.5283 17.3484L28.3046 22.4969ZM34.5166 18.9533C34.5166 19.7947 34.3797 20.5639 34.1059 21.261C33.8322 21.9584 33.4527 22.5605 32.968 23.0673C32.4828 23.5747 31.901 23.9693 31.2224 24.2516C30.5435 24.5337 29.8048 24.675 29.0062 24.675C28.6183 24.675 28.2303 24.6405 27.8426 24.5713L27.0725 27.7H24.5398L27.4797 15.2023C27.9074 15.202 30.17 15.2023 30.8545 15.2023C31.4933 15.2023 32.0438 15.3003 32.5058 15.4961C32.968 15.6922 33.3471 15.9601 33.6439 16.2999C33.9403 16.64 34.1599 17.0376 34.3027 17.4926C34.4451 17.9481 34.5166 18.4348 34.5166 18.9533Z" fill="#002855"/>
<path fill-rule="evenodd" clip-rule="evenodd" d="M22.9855 22.4929C22.6599 22.4929 22.404 22.4461 22.2182 22.352C22.032 22.2581 21.9012 22.1259 21.8258 21.9556C21.7499 21.7855 21.7211 21.5828 21.7385 21.3477C21.756 21.113 21.7995 20.8605 21.8693 20.5902L22.6368 17.3485H25.5146L26.0378 15.199H23.1425L23.8053 12.4681L21.1019 12.8911L19.3926 20.1849C19.2531 20.7839 19.1716 21.3538 19.1485 21.8939C19.125 22.4343 19.2065 22.9129 19.3926 23.3298C19.5785 23.7468 19.8924 24.0758 20.3345 24.3164C20.7762 24.557 21.3983 24.6775 22.2007 24.6775C22.7588 24.6775 23.2412 24.6305 23.6483 24.5366C23.6904 24.5269 23.7543 24.5113 23.7957 24.5011L24.3219 22.2775C24.1452 22.3384 23.9677 22.3791 23.7966 22.4137C23.535 22.4665 23.2646 22.4929 22.9855 22.4929Z" fill="#002855"/>
<path fill-rule="evenodd" clip-rule="evenodd" d="M16.5402 15.1965L14.3094 24.6775H16.8364L19.0672 15.1965H16.5402Z" fill="#002855"/>
<path fill-rule="evenodd" clip-rule="evenodd" d="M19.329 14.1003L19.7165 12.4534H17.1895L16.8019 14.1003H19.329Z" fill="#002855"/>
<path fill-rule="evenodd" clip-rule="evenodd" d="M8.72702 22.5612C9.12397 22.5612 9.49844 22.4639 9.85015 22.269C10.2017 22.0742 10.5055 21.8134 10.7608 21.4868C11.016 21.1601 11.2173 20.7905 11.3648 20.378C11.5122 19.9655 11.5861 19.5357 11.5861 19.0886C11.5861 18.5385 11.4952 18.1087 11.3138 17.7994C11.1322 17.4899 10.7549 17.3485 10.2673 17.3485C10.1083 17.3485 9.94386 17.3639 9.68856 17.4212C9.43326 17.4787 9.21306 17.5976 9.00892 17.7809L7.89929 22.4965C8.22747 22.5546 8.34111 22.5612 8.42068 22.5612C8.49987 22.5612 8.60207 22.5612 8.72702 22.5612ZM10.9393 15.2036C11.484 15.2036 11.9546 15.3011 12.352 15.4959C12.7489 15.6908 13.0779 15.9542 13.339 16.2865C13.5998 16.6191 13.7926 17.0085 13.9176 17.4556C14.0423 17.9025 14.1049 18.3839 14.1049 18.8995C14.1049 19.6903 13.9602 20.4381 13.6709 21.143C13.3815 21.8478 12.9873 22.4609 12.4881 22.9824C11.9887 23.504 11.3989 23.9166 10.7181 24.22C10.0374 24.5236 9.29983 24.6757 8.50578 24.6757C8.40372 24.6757 8.22503 24.6727 7.96973 24.6671C7.71444 24.6611 7.42212 24.6354 7.09316 24.5897C6.76408 24.5437 6.41519 24.4751 6.04664 24.3834C5.67771 24.2918 5.32896 24.1659 5 24.0053L7.94415 11.5075L10.5821 11.095L9.53983 15.5243C9.76659 15.4212 9.9805 15.3471 10.2076 15.2895C10.4344 15.2323 10.6783 15.2036 10.9393 15.2036Z" fill="#002855"/>
</svg>

<svg width="58" height="40" fill="none" xmlns="http://www.w3.org/2000/svg"><rect x=".5" y=".5" width="57" height="39" rx="3.5" fill="#fff" stroke="#F3F3F3"/><path fill-rule="evenodd" clip-rule="evenodd" d="M53.69 15.202h-2.527l-1.47 6.246h.003l-.202.86a5.59 5.59 0 0 1-.42.104 4.09 4.09 0 0 1-.812.079c-.325 0-.581-.047-.767-.141a.807.807 0 0 1-.393-.396 1.253 1.253 0 0 1-.087-.608c.018-.235.061-.487.131-.758l.767-3.242.506-2.149h-2.581l-1.169 4.986a9.302 9.302 0 0 0-.244 1.709c-.023.54.058 1.02.244 1.436.186.417.5.746.942.986.442.241 1.064.362 1.866.362.558 0 1.04-.047 1.448-.141l.048-.012v.005c-.114.514-.343.931-.71 1.257-.369.326-.915.489-1.639.489-.309 0-.59-.019-.845-.054l-.497 2.113c.337.044.71.067 1.121.067.77 0 1.444-.089 2.02-.266a4.024 4.024 0 0 0 1.486-.806 4.47 4.47 0 0 0 1.035-1.354c.278-.544.501-1.186.671-1.93l1.748-7.425-.006-.002.333-1.415m-12.394 2.147c-1.179 0-1.404 0-1.886.252-.343.18-.627.45-.876.765a3.61 3.61 0 0 0-.586 1.09 3.928 3.928 0 0 0-.213 1.288c0 .549.09.984.272 1.305.181.32.516.48 1.003.48.26 0 .496-.051.706-.154.209-.103.433-.275.67-.515.023-.286.06-.587.111-.902.051-.314.116-.606.173-.87l.626-2.74Zm1.794 3.189a5.752 5.752 0 0 0-.136 1.965c.068.659.317 1.668.56 2.173H41.07c-.299-.51-.286-.75-.342-.91-.317.263-.669.48-1.054.652a3.143 3.143 0 0 1-1.292.258c-.567 0-1.051-.1-1.453-.3a2.748 2.748 0 0 1-.986-.808 3.246 3.246 0 0 1-.553-1.185 5.944 5.944 0 0 1-.17-1.45c0-.79.139-1.535.417-2.233a5.687 5.687 0 0 1 1.156-1.828c.493-.521 1.682-1.67 3.635-1.67h3.92l-1.257 5.336Zm-14.785 1.959c.194.046.433.07.718.07.445 0 .85-.084 1.215-.252.365-.167.676-.4.933-.7.257-.3.456-.66.599-1.08.143-.42.214-.884.214-1.392 0-.495-.109-.916-.325-1.261-.217-.346-.597-.53-1.133-.532-.375-.002-.998-.002-.998-.002l-1.223 5.149Zm6.212-3.544c0 .842-.137 1.61-.411 2.308a5.474 5.474 0 0 1-1.138 1.806 5.085 5.085 0 0 1-1.746 1.185 5.719 5.719 0 0 1-2.216.423c-.388 0-.776-.035-1.163-.104l-.77 3.129H24.54l2.94-12.498h3.375c.638 0 1.189.098 1.65.294.463.196.842.464 1.139.804.296.34.516.738.659 1.193.142.455.214.942.214 1.46Zm-11.532 3.54c-.325 0-.581-.047-.767-.141a.807.807 0 0 1-.392-.396 1.252 1.252 0 0 1-.088-.608c.018-.235.061-.488.131-.758l.768-3.241h2.878l.523-2.15h-2.896l.663-2.73-2.703.422-1.71 7.294a9.303 9.303 0 0 0-.244 1.709c-.023.54.058 1.019.245 1.436.185.417.5.746.941.986.442.241 1.064.361 1.867.361a6.51 6.51 0 0 0 1.595-.176l.526-2.224a4.154 4.154 0 0 1-.525.137 4.09 4.09 0 0 1-.812.079m-6.445-7.296-2.23 9.48h2.526l2.231-9.48H16.54m2.789-1.097.387-1.647H17.19l-.387 1.647h2.527M8.727 22.561a2.28 2.28 0 0 0 1.123-.292c.352-.195.655-.456.91-.782a3.943 3.943 0 0 0 .826-2.398c0-.55-.09-.98-.272-1.29-.182-.31-.56-.45-1.047-.45-.159 0-.323.015-.578.072a1.484 1.484 0 0 0-.68.36l-1.11 4.716c.328.058.442.064.522.064h.306Zm2.212-7.357c.545 0 1.016.097 1.413.292.397.195.726.458.987.79.26.333.454.723.579 1.17.124.447.187.928.187 1.444a5.85 5.85 0 0 1-.434 2.243 5.835 5.835 0 0 1-1.183 1.84c-.5.521-1.09.934-1.77 1.237a5.37 5.37 0 0 1-2.212.456c-.102 0-.281-.003-.536-.009a7.779 7.779 0 0 1-.877-.077 10.19 10.19 0 0 1-1.046-.207A5.275 5.275 0 0 1 5 24.005l2.944-12.497 2.638-.413-1.042 4.43c.227-.104.44-.178.668-.236.226-.057.47-.085.731-.085Z" fill="#002855"/></svg>
